X:1
T:The Happy Song
T:Francis Burgette Short
T:The Happy Song
T:Public Domain
T:Public Domain
T:Public Domain
C:Francis Burgette Short
Z:Public Domain
%%score 1 ( 2 3 )
L:1/8
M:4/4
K:Bb
V:1 treble 
V:2 bass 
V:3 bass 
V:1
 [B,D]>[CE] | [DF]>[DF] [DF]>[DF] [Fd]2 [Fd]>[Ec] | [DB]>[DB] [FA]>[EG] [DF]2 [DF]>[DF] | %3
w: 1.~Oh the|joy that we may know when u-|nit- ed here be- low— We are|
w: 2.~Oh, the|rap- ture of the soul, tho’ the|storm- y bil- lows roll, If in|
w: 3.~Oh, the|tran- quil peace and love that He|giv- eth from a- bove, And the|
w: 4.~When our|jour- ney here is past, and the|twi- light comes at last, When the|
 [EG]>[EG] [EB]>[EB] [=EB]>[EB] [EA]>[EB] | [Fc]6 [B,D]>[CE] | %5
w: march- ing to the pal- ace of the|King; With our|
w: Je- sus we are shel- tered from a-|larms; We can|
w: com- fort that His sac- red pre- sence|brings; When He|
w: deep- er shades of ev- ening shall des-|cend; What a|
 [DF]>[DF] [DF]>[DF] [Fd]2 [Fd]>[Ec] | [DB]>[DB] [FA]>[EG] [DF]2 [DF]>[DF] | %7
w: faith se- rene- ly bright, ev- ery|bur- den will be light, And to-|
w: shout a- loud His praise, who di-|rect- ed all our ways, For be-|
w: calls His own a- part, and com-|munes with ev- ery heart, While we|
w: morn- ing will be ours, in those|nev- er fad- ing bowers, When we|
 [EG]>[EG] [EB]>[EB] [CA]>[CA] [DB]>[Ec] | [DB]6 |:"^Refrain" [DF]>[DB] | %10
w: ge- ther of His mer- cy we shall|sing.||
w: neath us are His ev- er- last- ing|arms.|Sing the|
w: rest be- neath the sha- dow of His|wings.||
w: join the nob- ler song that ne’er shall|end.||
 [Fd]4- [Fd]>[Fd] [Ec]>[DB] | [DF]4- [DF]>[B,D] [DF]>[FB] | [EA]4- [EA]>[EA] [EG]>[EF] | %13
w: |||
w: song, * the hap- py|song, * That fills with|joy * the realms of|
w: |||
w: |||
 [DF]4 [DB]2 :| [B,D]<[DF] [FB]/ | [FA]>[FA] [FA]>[Fe] [Fd]2 [Ec]2 | [DB]6 |] %17
w: ||||
w: glo- ry,|And praise, and|praise His name for- ev- er-|more.|
w: ||||
w: ||||
V:2
 [B,,F,]>[B,,F,] | [B,,B,]>[B,,B,] [B,,B,]>[B,,B,] [B,,B,]2 [B,,B,]>[B,,F,] | %2
w: ~ ~|~ ~ ~ ~ ~ ~ ~|
 [B,,F,]>[B,,F,] [B,,B,]>[B,,B,] [B,,B,]2 [B,,B,]>[B,,B,] | %3
w: ~ ~ ~ ~ ~ ~ ~|
 [E,B,]>[E,B,] [E,G,]>[E,G,] [C,G,]>[C,G,] [C,C]>[C,C] | (F,4- F,E,) [D,F,]>[C,F,] | %5
w: ~ ~ ~ ~ ~ ~ ~ ~|~ * * ~ ~|
 [B,,B,]>[B,,B,] [B,,B,]>[B,,B,] [B,,B,]2 [B,,B,]>[B,,F,] | %6
w: ~ ~ ~ ~ ~ ~ ~|
 [B,,F,]>[B,,F,] [B,,B,]>[B,,B,] [B,,B,]2 [B,,B,]>[B,,B,] | %7
w: ~ ~ ~ ~ ~ ~ ~|
 [E,B,]>[E,B,] [E,G,]>[E,G,] F,>F, F,>F, | [B,,F,]6 |: z2 | z2 (3(B,,D,)[F,B,] B,3/2 z/ z2 | %11
w: ~ ~ ~ ~ ~ ~ ~ ~|hap-||py * song ~|
 z (3[B,,B,](B,,D,)[F,B,] B,>[B,,F,] [B,,B,]>[B,,D] | %12
w: ~ that * fills with joy * *|
 [F,C]>[F,C] [F,C]>[F,C] [F,C]>[F,C] [F,B,]>[F,A,] | [B,,B,]4 [B,,F,]2 :| [B,,F,]<[B,,B,] [B,,D]/ | %15
w: |||
 [F,C]>[F,C] [F,C]>[F,C] [F,B,]2 (A,F,) | [B,,F,]6 |] %17
w: ||
V:3
 x2 | x8 | x8 | x8 | A,6 x2 | x8 | x8 | x4 F,>F, F,>F, | x6 |: x2 | x2 B,2 B,3/2 x5/2 | %11
w: ||||~|||Sing the song, the|||~ ~|
 x5/3 B,2 B,3/2 x17/6 | x8 | x6 :| x5/2 | x6 F,2 | x6 |] %17
w: ||||||

